X:1
T:Title
%%score { ( 1 4 ) | ( 2 3 ) }
L:1/8
M:4/4
K:F
V:1 treble nm="Grand Piano"
V:4 treble 
V:2 bass 
V:3 bass 
V:1
 z4 z2[Q:1/4=100] C2 | A4 B2 B2 | A3 G F2 A2 | [CEc]4 [CEG]2 [CEB]2 | [CFA]6 [A,_EF]2 | %5
 [DF]4 [DF]2 [DB]2 | d3 c [CFA]2 [B,EG]2 | [A,DF]4 [G,=B,F]2 [B,A]2 | [CG]6 [EG]2 | %9
 [EG]4 [FA]2 [GB]2 | [FA]3 [EG] [A,DF]2 [A,_EF]2 | [B,DB]4 [DFB]2 [DFB]2 | [CFA]4 F2- [FA]2 | %13
 c4 c2 d2 | c3 B [CFA]2 [CF]2 | [CFA]4 [CEA]2 [B,EG]2 |[M:3/4] [A,F]6 |] %17
V:2
 z4 z2 [F,A,]2 | [F,CF]4 [F,DF]2 [F,DF]2 | [CF]3 [B,E] [F,A,]2 [F,CF]2 | %3
 z2 z[K:treble] B[K:bass] C,2 C,2 | F,6 F,2 | [B,,B,]4 [B,,B,]2 [B,,B,]2 | B,4 z4 | %7
 D,4 D,2 [G,,F,]2 | [C,E,]6 [C,C]2 | [C,C]4 [C,C]2 [C,C]2 | [C,C]3 [^C,B,] D,2 =C,2 | %11
 B,,4 B,,2 D,2 | F,4 z2[K:treble] C2 | [F,A,F]4 [F,A,F]2 [F,B,F]2 | A,4[K:bass] z4 | C,4 C,2 C,2 | %16
[M:3/4] F,6 |] %17
V:3
 x8 | x8 | F,4 z4 | C,4[K:treble][K:bass] z4 | x8 | x8 | [F,F]3- [F,A,F] F,2 C,2 | x8 | x8 | x8 | %10
 x8 | x8 | z4 F,4[K:treble] | x8 | [F,F]3- [F,DF][K:bass] F,2 A,,2 | x8 |[M:3/4] x6 |] %17
V:4
 x8 | x8 | x8 | x8 | x8 | x8 | x8 | x8 | x8 | x8 | x8 | x8 | z4 A,2 z2 | x8 | x8 | x8 | %16
[M:3/4] x6 |] %17

